X:1
T:Usin le stelle
T:Usin le stelle
T:Piero Benedetti
T:Part 3
T:Source : Musiche di P.Benedetti---Libro secondo---Venetia---R.Amadino---1613. Editor : André Vierendeels (17/03/16).
T:Notes : Original clefs : C1, F4 Editorial accidentals above tha staff Figures in BC are notated in original print Composer called "Pietro" in this print 4 parts are separate notated in original print Part 1 : "Interdette speranze" (same composer) Part 2 : "E's al mio mal" (same composer) Part 4 : "Gett'amor l'arco" (same composer) Text by Jacopo Sannazaro (Scelta di sonetti) 4 parts are separate notated in original print 
T:©
T:©
C:Piero Benedetti
Z:©
%%score 1 2
L:1/8
Q:1/4=90
M:4/4
K:C
V:1 treble nm="Soprano" snm="S"
V:2 bass nm="BC" snm="BC"
V:1
 c2 cB c2 A2 | z A A/B/c/d/ e4 | F2 FE G4 | G8 | z G G4 A/G/F/E/ | F4 D4 | z2 AB d4- | %7
w: U- sin le stel- le|e'l Ciel _ _ _ _|tut- te lor pro-|ve,|ch'a quel ch'io _ _ _|sen- to|mi par- ran-|
 d2 c/d/e/d/ B4 | A8 | z FAB c4- | c3 B c4 | c4 z2 G2 | G8 | F4 E4 | D8 | z2 d6- | d2 _B3 ABG | %17
w: * no'un _ _ _ gio-|co,|da si pro- fon-|* da par-|te il|duol|si mo-|ve,|da|_ si pro- fon- da|
 A4 A4 | z2 A2 d3 E | E8 | D8 |] %21
w: par- te,|il duol si|mo-|ve.|
V:2
 A,,8 | A,,8 |"^4" F,4 C,2 C,2 | C,8 | C,4 ^C,4 | D,8 | D,8 | %7
"^-natural""^4""^4""^#" E,2 E,2 E,2 E,2 |"^#" A,,8 |"^6" F,6 E,2 | D,4 C,4 | C,8 |"^#" G,,4 A,,4 | %13
"^4""^#" A,,4 A,,4 |"^#" D,8 |"^-natural" D,4 C,4 | _B,,4 B,,4 | A,,8 |"^b" F,4 ^F,2 G,2 | %19
"^4""^#" A,,4 A,,4 |"^(#)" D,8 |] %21

